X:1     
T:Dives and Lazarus
B:Bushes and Briars(Vaughan Williams), Ed Roy Palmer, ISBN 1-86143-072-8
S:Mr John Evans, Dilwyn, Herefordshire, 1907
Z:Vaughan Williams
M:4/4     
L:1/8     
K:C
C2 |C2 G2 G2 FE |D2 D2 C3 G |G3 E G2 GA |
w:As it fell out up -on one day Rich Di-vus made a_ 
G6 G2 |G3 E G3 A |G3 E C2 E2 |F2 E2 D2 D2 | C4 |]
w:feast, And he in-vi-ted all his friends And gen-try of the best